bernoullicharts/sqrt_x__bound.svg

<?xml version="1.0" encoding="utf-8" standalone="no"?>
<!DOCTYPE svg PUBLIC "-//W3C//DTD SVG 1.1//EN"
  "http://www.w3.org/Graphics/SVG/1.1/DTD/svg11.dtd">
<!-- Created with matplotlib (https://matplotlib.org/) -->
<svg height="345.6pt" version="1.1" viewBox="0 0 460.8 345.6" width="460.8pt" xmlns="http://www.w3.org/2000/svg" xmlns:xlink="http://www.w3.org/1999/xlink">
 <defs>
  <style type="text/css">
*{stroke-linecap:butt;stroke-linejoin:round;}
  </style>
 </defs>
 <g id="figure_1">
  <g id="patch_1">
   <path d="M 0 345.6 
L 460.8 345.6 
L 460.8 0 
L 0 0 
z
" style="fill:#ffffff;"/>
  </g>
  <g id="axes_1">
   <g id="patch_2">
    <path d="M 57.6 307.584 
L 414.72 307.584 
L 414.72 41.472 
L 57.6 41.472 
z
" style="fill:#ffffff;"/>
   </g>
   <g id="matplotlib.axis_1">
    <g id="xtick_1">
     <g id="line2d_1">
      <defs>
       <path d="M 0 0 
L 0 3.5 
" id="mb59946d108" style="stroke:#000000;stroke-width:0.8;"/>
      </defs>
      <g>
       <use style="stroke:#000000;stroke-width:0.8;" x="73.800255" xlink:href="#mb59946d108" y="307.584"/>
      </g>
     </g>
     <g id="text_1">
      <text style="font-family:DejaVu Sans;font-size:10px;font-style:normal;font-weight:normal;text-anchor:middle;" transform="rotate(-0, 73.800255, 322.182437)" x="73.800255" y="322.182437">0.0</text>
     </g>
    </g>
    <g id="xtick_2">
     <g id="line2d_2">
      <g>
       <use style="stroke:#000000;stroke-width:0.8;" x="138.744153" xlink:href="#mb59946d108" y="307.584"/>
      </g>
     </g>
     <g id="text_2">
      <text style="font-family:DejaVu Sans;font-size:10px;font-style:normal;font-weight:normal;text-anchor:middle;" transform="rotate(-0, 138.744153, 322.182437)" x="138.744153" y="322.182437">0.2</text>
     </g>
    </g>
    <g id="xtick_3">
     <g id="line2d_3">
      <g>
       <use style="stroke:#000000;stroke-width:0.8;" x="203.688051" xlink:href="#mb59946d108" y="307.584"/>
      </g>
     </g>
     <g id="text_3">
      <text style="font-family:DejaVu Sans;font-size:10px;font-style:normal;font-weight:normal;text-anchor:middle;" transform="rotate(-0, 203.688051, 322.182437)" x="203.688051" y="322.182437">0.4</text>
     </g>
    </g>
    <g id="xtick_4">
     <g id="line2d_4">
      <g>
       <use style="stroke:#000000;stroke-width:0.8;" x="268.631949" xlink:href="#mb59946d108" y="307.584"/>
      </g>
     </g>
     <g id="text_4">
      <text style="font-family:DejaVu Sans;font-size:10px;font-style:normal;font-weight:normal;text-anchor:middle;" transform="rotate(-0, 268.631949, 322.182437)" x="268.631949" y="322.182437">0.6</text>
     </g>
    </g>
    <g id="xtick_5">
     <g id="line2d_5">
      <g>
       <use style="stroke:#000000;stroke-width:0.8;" x="333.575847" xlink:href="#mb59946d108" y="307.584"/>
      </g>
     </g>
     <g id="text_5">
      <text style="font-family:DejaVu Sans;font-size:10px;font-style:normal;font-weight:normal;text-anchor:middle;" transform="rotate(-0, 333.575847, 322.182437)" x="333.575847" y="322.182437">0.8</text>
     </g>
    </g>
    <g id="xtick_6">
     <g id="line2d_6">
      <g>
       <use style="stroke:#000000;stroke-width:0.8;" x="398.519745" xlink:href="#mb59946d108" y="307.584"/>
      </g>
     </g>
     <g id="text_6">
      <text style="font-family:DejaVu Sans;font-size:10px;font-style:normal;font-weight:normal;text-anchor:middle;" transform="rotate(-0, 398.519745, 322.182437)" x="398.519745" y="322.182437">1.0</text>
     </g>
    </g>
    <g id="text_7">
     <text style="font-family:DejaVu Sans;font-size:10px;font-style:normal;font-weight:normal;text-anchor:middle;" transform="rotate(-0, 236.16, 335.860562)" x="236.16" y="335.860562">Input Coin's Heads Probability (λ)</text>
    </g>
   </g>
   <g id="matplotlib.axis_2">
    <g id="ytick_1">
     <g id="line2d_7">
      <defs>
       <path d="M 0 0 
L -3.5 0 
" id="m07c2861af7" style="stroke:#000000;stroke-width:0.8;"/>
      </defs>
      <g>
       <use style="stroke:#000000;stroke-width:0.8;" x="57.6" xlink:href="#m07c2861af7" y="297.907261"/>
      </g>
     </g>
     <g id="text_8">
      <text style="font-family:DejaVu Sans;font-size:10px;font-style:normal;font-weight:normal;text-anchor:end;" transform="rotate(-0, 50.6, 301.70648)" x="50.6" y="301.70648">0</text>
     </g>
    </g>
    <g id="ytick_2">
     <g id="line2d_8">
      <g>
       <use style="stroke:#000000;stroke-width:0.8;" x="57.6" xlink:href="#m07c2861af7" y="249.523249"/>
      </g>
     </g>
     <g id="text_9">
      <text style="font-family:DejaVu Sans;font-size:10px;font-style:normal;font-weight:normal;text-anchor:end;" transform="rotate(-0, 50.6, 253.322468)" x="50.6" y="253.322468">10</text>
     </g>
    </g>
    <g id="ytick_3">
     <g id="line2d_9">
      <g>
       <use style="stroke:#000000;stroke-width:0.8;" x="57.6" xlink:href="#m07c2861af7" y="201.139237"/>
      </g>
     </g>
     <g id="text_10">
      <text style="font-family:DejaVu Sans;font-size:10px;font-style:normal;font-weight:normal;text-anchor:end;" transform="rotate(-0, 50.6, 204.938456)" x="50.6" y="204.938456">20</text>
     </g>
    </g>
    <g id="ytick_4">
     <g id="line2d_10">
      <g>
       <use style="stroke:#000000;stroke-width:0.8;" x="57.6" xlink:href="#m07c2861af7" y="152.755225"/>
      </g>
     </g>
     <g id="text_11">
      <text style="font-family:DejaVu Sans;font-size:10px;font-style:normal;font-weight:normal;text-anchor:end;" transform="rotate(-0, 50.6, 156.554444)" x="50.6" y="156.554444">30</text>
     </g>
    </g>
    <g id="ytick_5">
     <g id="line2d_11">
      <g>
       <use style="stroke:#000000;stroke-width:0.8;" x="57.6" xlink:href="#m07c2861af7" y="104.371213"/>
      </g>
     </g>
     <g id="text_12">
      <text style="font-family:DejaVu Sans;font-size:10px;font-style:normal;font-weight:normal;text-anchor:end;" transform="rotate(-0, 50.6, 108.170431)" x="50.6" y="108.170431">40</text>
     </g>
    </g>
    <g id="ytick_6">
     <g id="line2d_12">
      <g>
       <use style="stroke:#000000;stroke-width:0.8;" x="57.6" xlink:href="#m07c2861af7" y="55.987201"/>
      </g>
     </g>
     <g id="text_13">
      <text style="font-family:DejaVu Sans;font-size:10px;font-style:normal;font-weight:normal;text-anchor:end;" transform="rotate(-0, 50.6, 59.786419)" x="50.6" y="59.786419">50</text>
     </g>
    </g>
    <g id="text_14">
     <text style="font-family:DejaVu Sans;font-size:10px;font-style:normal;font-weight:normal;text-anchor:middle;" transform="rotate(-90, 31.795312, 174.528)" x="31.795312" y="174.528">Coin Flips Needed</text>
    </g>
   </g>
   <g id="line2d_13">
    <path clip-path="url(#pcbecffc12c)" d="M 73.832727 53.568 
L 77.112066 284.719923 
L 80.391405 288.20745 
L 83.670744 289.759759 
L 86.950083 290.686798 
L 90.229421 291.320057 
L 93.50876 291.787795 
L 96.788099 292.151475 
L 100.067438 292.444718 
L 103.346777 292.687673 
L 106.626116 292.893244 
L 109.905455 293.070128 
L 113.184793 293.224433 
L 116.464132 293.360586 
L 119.743471 293.481887 
L 123.02281 293.590855 
L 126.302149 293.689447 
L 129.581488 293.779212 
L 132.860826 293.861393 
L 136.140165 293.937 
L 139.419504 294.006867 
L 142.698843 294.071684 
L 145.978182 294.132032 
L 149.257521 294.188401 
L 152.53686 294.241212 
L 155.816198 294.290822 
L 159.095537 294.337544 
L 162.374876 294.381645 
L 165.654215 294.423364 
L 168.933554 294.462906 
L 172.212893 294.500455 
L 175.492231 294.536173 
L 178.77157 294.570204 
L 182.050909 294.602676 
L 185.330248 294.633706 
L 188.609587 294.663396 
L 191.888926 294.691841 
L 195.168264 294.719125 
L 198.447603 294.745325 
L 201.726942 294.770511 
L 205.006281 294.794747 
L 208.28562 294.818091 
L 211.564959 294.840596 
L 214.844298 294.862312 
L 218.123636 294.883283 
L 221.402975 294.903552 
L 224.682314 294.923156 
L 227.961653 294.942131 
L 231.240992 294.96051 
L 234.520331 294.978324 
L 237.799669 294.995601 
L 241.079008 295.012367 
L 244.358347 295.028647 
L 247.637686 295.044464 
L 250.917025 295.059841 
L 254.196364 295.074795 
L 257.475702 295.089348 
L 260.755041 295.103516 
L 264.03438 295.117316 
L 267.313719 295.130764 
L 270.593058 295.143874 
L 273.872397 295.15666 
L 277.151736 295.169136 
L 280.431074 295.181314 
L 283.710413 295.193205 
L 286.989752 295.204821 
L 290.269091 295.216172 
L 293.54843 295.227268 
L 296.827769 295.238118 
L 300.107107 295.248731 
L 303.386446 295.259117 
L 306.665785 295.269282 
L 309.945124 295.279234 
L 313.224463 295.288982 
L 316.503802 295.298531 
L 319.78314 295.307889 
L 323.062479 295.317061 
L 326.341818 295.326054 
L 329.621157 295.334874 
L 332.900496 295.343525 
L 336.179835 295.352014 
L 339.459174 295.360345 
L 342.738512 295.368524 
L 346.017851 295.376554 
L 349.29719 295.38444 
L 352.576529 295.392187 
L 355.855868 295.399798 
L 359.135207 295.407278 
L 362.414545 295.41463 
L 365.693884 295.421857 
L 368.973223 295.428964 
L 372.252562 295.435954 
L 375.531901 295.442829 
L 378.81124 295.449593 
L 382.090579 295.456248 
L 385.369917 295.462799 
L 388.649256 295.469246 
L 391.928595 295.475594 
L 395.207934 295.481845 
L 398.487273 295.488 
" style="fill:none;stroke:#1f77b4;stroke-linecap:square;stroke-width:1.5;"/>
   </g>
   <g id="line2d_14">
    <path clip-path="url(#pcbecffc12c)" d="M 73.832727 54.380851 
L 77.112066 241.656009 
L 80.391405 261.667636 
L 83.670744 273.976529 
L 86.950083 276.473144 
L 90.229421 275.75706 
L 93.50876 276.753771 
L 96.788099 279.840671 
L 100.067438 281.727647 
L 103.346777 280.305157 
L 106.626116 283.227552 
L 109.905455 284.698426 
L 113.184793 283.624301 
L 116.464132 283.982342 
L 119.743471 285.975764 
L 123.02281 284.998407 
L 126.302149 286.517665 
L 129.581488 286.836999 
L 132.860826 286.478957 
L 136.140165 287.40793 
L 139.419504 287.824033 
L 142.698843 287.262778 
L 145.978182 287.427284 
L 149.257521 288.201428 
L 152.53686 287.920801 
L 155.816198 288.365934 
L 159.095537 288.482056 
L 162.374876 288.462702 
L 165.654215 288.907835 
L 168.933554 288.462702 
L 172.212893 289.227169 
L 175.492231 289.74004 
L 178.77157 289.517473 
L 182.050909 289.188462 
L 185.330248 290.078728 
L 188.609587 289.74004 
L 191.888926 289.972283 
L 195.168264 290.349678 
L 198.447603 290.639982 
L 201.726942 290.204526 
L 205.006281 290.630306 
L 208.28562 290.610952 
L 211.564959 290.43677 
L 214.844298 290.4658 
L 218.123636 290.620629 
L 221.402975 291.036731 
L 224.682314 290.727074 
L 227.961653 290.901256 
L 231.240992 290.756104 
L 234.520331 291.278651 
L 237.799669 291.443157 
L 241.079008 290.891579 
L 244.358347 291.462511 
L 247.637686 291.114146 
L 250.917025 291.539925 
L 254.196364 290.785135 
L 257.475702 291.578632 
L 260.755041 291.443157 
L 264.03438 291.820552 
L 267.313719 291.501218 
L 270.593058 292.004412 
L 273.872397 291.88829 
L 277.151736 291.665724 
L 280.431074 291.801199 
L 283.710413 292.023765 
L 286.989752 291.926997 
L 290.269091 291.946351 
L 293.54843 291.897967 
L 296.827769 291.85926 
L 300.107107 292.265685 
L 303.386446 292.168917 
L 306.665785 292.275362 
L 309.945124 292.37213 
L 313.224463 292.304392 
L 316.503802 292.188271 
L 319.78314 292.333423 
L 323.062479 292.149564 
L 326.341818 292.362453 
L 329.621157 292.304392 
L 332.900496 292.265685 
L 336.179835 292.623727 
L 339.459174 292.58502 
L 342.738512 292.594697 
L 346.017851 292.604373 
L 349.29719 292.575343 
L 352.576529 292.759202 
L 355.855868 292.691465 
L 359.135207 292.730172 
L 362.414545 292.807586 
L 365.693884 292.865647 
L 368.973223 292.82694 
L 372.252562 292.904354 
L 375.531901 292.885001 
L 378.81124 292.865647 
L 382.090579 292.981769 
L 385.369917 292.952738 
L 388.649256 293.001122 
L 391.928595 293.020476 
L 395.207934 293.059183 
L 398.487273 293.06886 
" style="fill:none;stroke:#ff7f0e;stroke-linecap:square;stroke-width:1.5;"/>
   </g>
   <g id="patch_3">
    <path d="M 57.6 307.584 
L 57.6 41.472 
" style="fill:none;stroke:#000000;stroke-linecap:square;stroke-linejoin:miter;stroke-width:0.8;"/>
   </g>
   <g id="patch_4">
    <path d="M 414.72 307.584 
L 414.72 41.472 
" style="fill:none;stroke:#000000;stroke-linecap:square;stroke-linejoin:miter;stroke-width:0.8;"/>
   </g>
   <g id="patch_5">
    <path d="M 57.6 307.584 
L 414.72 307.584 
" style="fill:none;stroke:#000000;stroke-linecap:square;stroke-linejoin:miter;stroke-width:0.8;"/>
   </g>
   <g id="patch_6">
    <path d="M 57.6 41.472 
L 414.72 41.472 
" style="fill:none;stroke:#000000;stroke-linecap:square;stroke-linejoin:miter;stroke-width:0.8;"/>
   </g>
   <g id="text_15">
    <text style="font-family:DejaVu Sans;font-size:12px;font-style:normal;font-weight:normal;text-anchor:middle;" transform="rotate(-0, 236.16, 35.472)" x="236.16" y="35.472">Coin Flips for sqrt(x)</text>
   </g>
   <g id="legend_1">
    <g id="patch_7">
     <path d="M 219.784062 78.82825 
L 407.72 78.82825 
Q 409.72 78.82825 409.72 76.82825 
L 409.72 48.472 
Q 409.72 46.472 407.72 46.472 
L 219.784062 46.472 
Q 217.784062 46.472 217.784062 48.472 
L 217.784062 76.82825 
Q 217.784062 78.82825 219.784062 78.82825 
z
" style="fill:#ffffff;opacity:0.8;stroke:#cccccc;stroke-linejoin:miter;"/>
    </g>
    <g id="line2d_15">
     <path d="M 221.784062 54.570437 
L 241.784062 54.570437 
" style="fill:none;stroke:#1f77b4;stroke-linecap:square;stroke-width:1.5;"/>
    </g>
    <g id="line2d_16"/>
    <g id="text_16">
     <text style="font-family:DejaVu Sans;font-size:10px;font-style:normal;font-weight:normal;text-anchor:start;" transform="rotate(-0, 249.784062, 58.070437)" x="249.784062" y="58.070437">Coin Flip Lower Bound (Mendo)</text>
    </g>
    <g id="line2d_17">
     <path d="M 221.784062 69.248562 
L 241.784062 69.248562 
" style="fill:none;stroke:#ff7f0e;stroke-linecap:square;stroke-width:1.5;"/>
    </g>
    <g id="line2d_18"/>
    <g id="text_17">
     <text style="font-family:DejaVu Sans;font-size:10px;font-style:normal;font-weight:normal;text-anchor:start;" transform="rotate(-0, 249.784062, 72.748562)" x="249.784062" y="72.748562">Avg. Coins Flipped sqrt(x)</text>
    </g>
   </g>
  </g>
 </g>
 <defs>
  <clipPath id="pcbecffc12c">
   <rect height="266.112" width="357.12" x="57.6" y="41.472"/>
  </clipPath>
 </defs>
</svg>

<svg height="460.8" viewBox="0 0 460.8 345.6" width="614.4" xmlns="http://www.w3.org/2000/svg" xmlns:xlink="http://www.w3.org/1999/xlink"><defs><style>*{stroke-linecap:butt;stroke-linejoin:round}</style></defs><g id="figure_1"><path d="M0 345.6h460.8V0H0z" fill="#fff" id="patch_1"/><g id="axes_1"><path d="M57.6 307.584h357.12V41.472H57.6z" fill="#fff" id="patch_2"/><g id="matplotlib.axis_1"><g id="xtick_1"><g id="line2d_1"><defs><path d="M0 0v3.5" id="mb59946d108" stroke="#000" stroke-width=".8"/></defs><use x="73.8" xlink:href="#mb59946d108" y="307.584" stroke="#000" stroke-width=".8"/></g><text x="73.8" y="322.182" font-family="DejaVu Sans" font-size="10" font-weight="400" text-anchor="middle" id="text_1">0.0</text></g><g id="xtick_2"><use x="138.744" xlink:href="#mb59946d108" y="307.584" stroke="#000" stroke-width=".8" id="line2d_2"/><text x="138.744" y="322.182" font-family="DejaVu Sans" font-size="10" font-weight="400" text-anchor="middle" id="text_2">0.2</text></g><g id="xtick_3"><use x="203.688" xlink:href="#mb59946d108" y="307.584" stroke="#000" stroke-width=".8" id="line2d_3"/><text x="203.688" y="322.182" font-family="DejaVu Sans" font-size="10" font-weight="400" text-anchor="middle" id="text_3">0.4</text></g><g id="xtick_4"><use x="268.632" xlink:href="#mb59946d108" y="307.584" stroke="#000" stroke-width=".8" id="line2d_4"/><text x="268.632" y="322.182" font-family="DejaVu Sans" font-size="10" font-weight="400" text-anchor="middle" id="text_4">0.6</text></g><g id="xtick_5"><use x="333.576" xlink:href="#mb59946d108" y="307.584" stroke="#000" stroke-width=".8" id="line2d_5"/><text x="333.576" y="322.182" font-family="DejaVu Sans" font-size="10" font-weight="400" text-anchor="middle" id="text_5">0.8</text></g><g id="xtick_6"><use x="398.52" xlink:href="#mb59946d108" y="307.584" stroke="#000" stroke-width=".8" id="line2d_6"/><text x="398.52" y="322.182" font-family="DejaVu Sans" font-size="10" font-weight="400" text-anchor="middle" id="text_6">1.0</text></g><text x="236.16" y="335.861" font-family="DejaVu Sans" font-size="10" font-weight="400" text-anchor="middle" id="text_7">Input Coin&apos;s Heads Probability (λ)</text></g><g id="matplotlib.axis_2"><g id="ytick_1"><g id="line2d_7"><defs><path d="M0 0h-3.5" id="m07c2861af7" stroke="#000" stroke-width=".8"/></defs><use x="57.6" xlink:href="#m07c2861af7" y="297.907" stroke="#000" stroke-width=".8"/></g><text x="50.6" y="301.706" font-family="DejaVu Sans" font-size="10" font-weight="400" text-anchor="end" id="text_8">0</text></g><g id="ytick_2"><use x="57.6" xlink:href="#m07c2861af7" y="249.523" stroke="#000" stroke-width=".8" id="line2d_8"/><text x="50.6" y="253.322" font-family="DejaVu Sans" font-size="10" font-weight="400" text-anchor="end" id="text_9">10</text></g><g id="ytick_3"><use x="57.6" xlink:href="#m07c2861af7" y="201.139" stroke="#000" stroke-width=".8" id="line2d_9"/><text x="50.6" y="204.938" font-family="DejaVu Sans" font-size="10" font-weight="400" text-anchor="end" id="text_10">20</text></g><g id="ytick_4"><use x="57.6" xlink:href="#m07c2861af7" y="152.755" stroke="#000" stroke-width=".8" id="line2d_10"/><text x="50.6" y="156.554" font-family="DejaVu Sans" font-size="10" font-weight="400" text-anchor="end" id="text_11">30</text></g><g id="ytick_5"><use x="57.6" xlink:href="#m07c2861af7" y="104.371" stroke="#000" stroke-width=".8" id="line2d_11"/><text x="50.6" y="108.17" font-family="DejaVu Sans" font-size="10" font-weight="400" text-anchor="end" id="text_12">40</text></g><g id="ytick_6"><use x="57.6" xlink:href="#m07c2861af7" y="55.987" stroke="#000" stroke-width=".8" id="line2d_12"/><text x="50.6" y="59.786" font-family="DejaVu Sans" font-size="10" font-weight="400" text-anchor="end" id="text_13">50</text></g><text transform="rotate(-90 31.795 174.528)" x="31.795" y="174.528" font-family="DejaVu Sans" font-size="10" font-weight="400" text-anchor="middle" id="text_14">Coin Flips Needed</text></g><path clip-path="url(#pcbecffc12c)" d="M73.833 53.568l3.28 231.152 3.278 3.487 3.28 1.553 3.28.927 3.278.633 3.28.468 3.28.363 3.278.294 3.28.243 3.28.205 3.278.177 3.28.154 3.28.137 3.278.12 3.28.11 3.28.098 3.278.09 3.28.082 3.28.076 3.279.07 3.279.065 3.28.06 3.279.056 3.279.053 3.28.05 3.279.047 3.279.044 3.28.041 3.279.04 3.279.037 3.28.036 3.279.034 3.279.033 3.28.03 3.279.03 3.279.029 3.28.027 3.279.026 3.279.026 3.28.024 3.279.023 3.279.023 3.28.021 3.279.021 3.279.02 3.28.02 3.279.02 3.279.018 3.28.017 3.279.018 3.279.016 3.28.017 3.279.015 3.279.016 3.28.015 3.279.014 3.279.015 3.28.013 3.279.014 3.28.013 3.278.013 3.28.012 3.28.012 3.278.012 3.28.012 3.28.011 3.278.011 3.28.011 3.28.01 3.278.011 3.28.01 3.28.01 3.278.01 3.28.01 3.28.009 3.278.01 3.28.008 3.28.009 3.278.009 3.28.008 3.28.008 3.279.009 3.279.008 3.28.007 3.279.008 3.279.008 3.28.007 3.279.008 3.279.007 3.28.007 3.279.007 3.279.007 3.28.007 3.279.006 3.279.007 3.28.006 3.279.007 3.279.006 3.28.006" fill="none" stroke="#1f77b4" stroke-linecap="square" stroke-width="1.5" id="line2d_13"/><path clip-path="url(#pcbecffc12c)" d="M73.833 54.38l3.28 187.276 3.278 20.012 3.28 12.309 3.28 2.496 3.278-.716 3.28.997 3.28 3.087 3.278 1.887 3.28-1.423 3.28 2.923 3.278 1.47 3.28-1.074 3.28.358 3.278 1.994 3.28-.978 3.28 1.52 3.278.319 3.28-.358 3.28.929 3.279.416 3.279-.561 3.28.164 3.279.774 3.279-.28 3.28.445 3.279.116 3.279-.02 3.28.446 3.279-.445 3.279.764 3.28.513 3.279-.223 3.279-.329 3.28.89 3.279-.338 3.279.232 3.28.378 3.279.29 3.279-.435 3.28.425 3.279-.019 3.279-.174 3.28.029 3.279.155 3.279.416 3.28-.31 3.279.174 3.279-.145 3.28.523 3.279.164 3.279-.551 3.28.57 3.279-.348 3.279.426 3.28-.755 3.279.794 3.279-.136 3.28.378 3.279-.32 3.28.503 3.278-.116 3.28-.222 3.28.135 3.278.223 3.28-.097 3.28.02 3.278-.049 3.28-.039 3.28.407 3.278-.097 3.28.106 3.28.097 3.278-.068 3.28-.116 3.28.145 3.278-.183 3.28.212 3.28-.058 3.278-.038 3.28.358 3.28-.039 3.279.01 3.279.01 3.28-.03 3.279.184 3.279-.068 3.28.04 3.279.077 3.279.058 3.28-.04 3.279.078 3.279-.019 3.28-.02 3.279.117 3.279-.03 3.28.05 3.279.018 3.279.04 3.28.009" fill="none" stroke="#ff7f0e" stroke-linecap="square" stroke-width="1.5" id="line2d_14"/><path d="M57.6 307.584V41.472" fill="none" stroke="#000" stroke-linecap="square" stroke-width=".8" id="patch_3"/><path d="M414.72 307.584V41.472" fill="none" stroke="#000" stroke-linecap="square" stroke-width=".8" id="patch_4"/><path d="M57.6 307.584h357.12" fill="none" stroke="#000" stroke-linecap="square" stroke-width=".8" id="patch_5"/><path d="M57.6 41.472h357.12" fill="none" stroke="#000" stroke-linecap="square" stroke-width=".8" id="patch_6"/><text x="236.16" y="35.472" font-family="DejaVu Sans" font-size="12" font-weight="400" text-anchor="middle" id="text_15">Coin Flips for sqrt(x)</text><g id="legend_1"><path d="M219.784 78.828H407.72q2 0 2-2V48.472q0-2-2-2H219.784q-2 0-2 2v28.356q0 2 2 2z" fill="#fff" opacity=".8" stroke="#ccc" id="patch_7"/><path d="M221.784 54.57h20" fill="none" stroke="#1f77b4" stroke-linecap="square" stroke-width="1.5" id="line2d_15"/><text x="249.784" y="58.07" font-family="DejaVu Sans" font-size="10" font-weight="400" id="text_16">Coin Flip Lower Bound (Mendo)</text><path d="M221.784 69.249h20" fill="none" stroke="#ff7f0e" stroke-linecap="square" stroke-width="1.5" id="line2d_17"/><text x="249.784" y="72.749" font-family="DejaVu Sans" font-size="10" font-weight="400" id="text_17">Avg. Coins Flipped sqrt(x)</text></g></g></g><defs><clipPath id="pcbecffc12c"><path d="M57.6 41.472h357.12v266.112H57.6z"/></clipPath></defs></svg>
